X: 4283
T: OXFORD STREET
%R: reel
B: James Kerr "Merry Melodies" v.4 p.30 #283
Z: 2016 John Chambers <jc:trillian.mit.edu>
M: C
L: 1/8
K: D
|:\
Adcd fdcd | Be^de gede |\
ca^ga =gece |[1 dfed cBA^G :|[2 d2f2d2 |:\
(ed) |\
cAce gbag | fgaf dfed |
cAce gbag | fgaf d2(cB) |\
Adcd fdcd | Be^de gede |\
ca^ga =gece |[1 d2f2d2 :|[2 d2f2d2z2 |]

%%sep 1 1 500
%%sep 1 1 500

